static/assets/img/icons/theme/home/chair-1.svg

<svg height="24" viewBox="0 0 24 24" width="24" xmlns="http://www.w3.org/2000/svg"><g fill="none" fill-rule="evenodd"><path d="m0 0h24v24h-24z" opacity="0"/><g fill="#000"><path d="m12 2c1.8385982 0 3.5193947 1.03878936 4.3416408 2.68328157l2.6583592 5.31671843c1.365323 2.730646.25851 6.0510849-2.472136 7.4164079-.7675739.3837869-1.6139621.5835921-2.4721359.5835921h-4.11145619c-3.05295501 0-5.52786405-2.474909-5.52786405-5.527864 0-.8581738.19980516-1.704562.58359214-2.472136l2.65835921-5.31671843c.82224611-1.64449221 2.50304259-2.68328157 4.34164079-2.68328157zm-4.45 11.6c1.45633458 1.0922509 2.9436654 1.65 4.45 1.65s2.9936654-.5577491 4.45-1.65l-.9-1.2c-1.2103321.9077491-2.3896679 1.35-3.55 1.35s-2.33966792-.4422509-3.55-1.35z"/><path d="m6.15999985 21.0604779 2-3.4641016c.27614237-.4782926.88773278-.6421678 1.3660254-.3660254.47829265.2761424.64216775.8877328.3660254 1.3660254l-2 3.4641016c-.27614237.4782927-.88773278.6421678-1.3660254.3660254-.47829262-.2761423-.64216778-.8877327-.3660254-1.3660254zm11.67205135-.0303501c.2761424.4782926.1122672 1.089883-.3660254 1.3660254s-1.089883.1122672-1.3660254-.3660254l-2-3.4641016c-.2761424-.4782927-.1122672-1.0898831.3660254-1.3660254.4782926-.2761424 1.089883-.1122673 1.3660254.3660254z" opacity=".3"/></g></g></svg>

<svg width="24px" height="24px" viewBox="0 0 24 24" version="1.1" xmlns="http://www.w3.org/2000/svg" xmlns:xlink="http://www.w3.org/1999/xlink">
    <title>Icon For Chair#1</title>
    <g stroke="none" stroke-width="1" fill="none" fill-rule="evenodd">
        <rect opacity="0" x="0" y="0" width="24" height="24"></rect>
        <path d="M12,2 C13.8385982,2 15.5193947,3.03878936 16.3416408,4.68328157 L19,10 C20.365323,12.730646 19.25851,16.0510849 16.527864,17.4164079 C15.7602901,17.8001948 14.9139019,18 14.0557281,18 L9.94427191,18 C6.8913169,18 4.41640786,15.525091 4.41640786,12.472136 C4.41640786,11.6139622 4.61621302,10.767574 5,10 L7.65835921,4.68328157 C8.48060532,3.03878936 10.1614018,2 12,2 Z M7.55,13.6 C9.00633458,14.6922509 10.4936654,15.25 12,15.25 C13.5063346,15.25 14.9936654,14.6922509 16.45,13.6 L15.55,12.4 C14.3396679,13.3077491 13.1603321,13.75 12,13.75 C10.8396679,13.75 9.66033208,13.3077491 8.45,12.4 L7.55,13.6 Z" fill="#000000"></path>
        <path d="M6.15999985,21.0604779 L8.15999985,17.5963763 C8.43614222,17.1180837 9.04773263,16.9542085 9.52602525,17.2303509 C10.0043179,17.5064933 10.168193,18.1180837 9.89205065,18.5963763 L7.89205065,22.0604779 C7.61590828,22.5387706 7.00431787,22.7026457 6.52602525,22.4265033 C6.04773263,22.150361 5.88385747,21.5387706 6.15999985,21.0604779 Z M17.8320512,21.0301278 C18.1081936,21.5084204 17.9443184,22.1200108 17.4660258,22.3961532 C16.9877332,22.6722956 16.3761428,22.5084204 16.1000004,22.0301278 L14.1000004,18.5660262 C13.823858,18.0877335 13.9877332,17.4761431 14.4660258,17.2000008 C14.9443184,16.9238584 15.5559088,17.0877335 15.8320512,17.5660262 L17.8320512,21.0301278 Z" fill="#000000" opacity="0.3"></path>
    </g>
</svg>
